svg/fluentui-system-icons/ic_fluent_person_lightning_16_regular.svg

<svg width="16" height="16" viewBox="0 0 16 16" fill="none" xmlns="http://www.w3.org/2000/svg">
<path d="M7.08647 12.9994C7.23818 13.4254 7.57902 13.7755 8.02493 13.9237C7.70057 13.9735 7.35864 14 7 14C3.85951 14 2 11.9714 2 10V9.5C2 8.67157 2.67157 8 3.5 8H8.75156L8.33489 9H3.5C3.22386 9 3 9.22386 3 9.5V10C3 11.4376 4.43216 13 7 13C7.02897 13 7.05779 12.9998 7.08647 12.9994ZM7 1.5C8.51878 1.5 9.75 2.73122 9.75 4.25C9.75 5.76878 8.51878 7 7 7C5.48122 7 4.25 5.76878 4.25 4.25C4.25 2.73122 5.48122 1.5 7 1.5ZM7 2.5C6.0335 2.5 5.25 3.2835 5.25 4.25C5.25 5.2165 6.0335 6 7 6C7.9665 6 8.75 5.2165 8.75 4.25C8.75 3.2835 7.9665 2.5 7 2.5ZM8.50247 13H10.2525L9.66267 15.3592C9.54186 15.8424 10.1248 16.1859 10.4889 15.846L15.3614 11.2983C15.8591 10.8338 15.5304 10 14.8497 10H13.7525L14.5331 7.65811C14.641 7.33435 14.4 7 14.0588 7H10.5858C10.384 7 10.2019 7.12137 10.1243 7.30769L8.04093 12.3077C7.90371 12.637 8.14568 13 8.50247 13Z" fill="#212121"/>
</svg>

<svg xmlns="http://www.w3.org/2000/svg" width="16" height="16"><path d="M7.086 13c.152.425.493.775.939.924A6.75 6.75 0 0 1 7 14c-3.14 0-5-2.029-5-4v-.5A1.5 1.5 0 0 1 3.5 8h5.252l-.417 1H3.5a.5.5 0 0 0-.5.5v.5c0 1.438 1.432 3 4 3h.086ZM7 1.5A2.75 2.75 0 1 1 7 7a2.75 2.75 0 0 1 0-5.5Zm0 1A1.75 1.75 0 1 0 7 6a1.75 1.75 0 0 0 0-3.5ZM8.502 13h1.75l-.59 2.36c-.12.482.463.826.827.486l4.872-4.548A.75.75 0 0 0 14.85 10h-1.098l.781-2.342A.5.5 0 0 0 14.06 7h-3.473a.5.5 0 0 0-.462.308l-2.083 5a.5.5 0 0 0 .461.692Z"/></svg>
